src/xmb/flatui/ScummVM-content.svg

<?xml version="1.0" encoding="UTF-8" standalone="no"?>
<svg
   enable-background="new 0 0 256 256"
   viewBox="0 0 256 256"
   version="1.1"
   id="svg1196"
   sodipodi:docname="ScummVM-content.svg"
   inkscape:version="1.2.2 (732a01da63, 2022-12-09)"
   inkscape:export-filename="ScummVM-content.png"
   inkscape:export-xdpi="96"
   inkscape:export-ydpi="96"
   xmlns:inkscape="http://www.inkscape.org/namespaces/inkscape"
   xmlns:sodipodi="http://sodipodi.sourceforge.net/DTD/sodipodi-0.dtd"
   xmlns="http://www.w3.org/2000/svg"
   xmlns:svg="http://www.w3.org/2000/svg">
  <defs
     id="defs1200" />
  <sodipodi:namedview
     id="namedview1198"
     pagecolor="#ffffff"
     bordercolor="#000000"
     borderopacity="0.25"
     inkscape:showpageshadow="2"
     inkscape:pageopacity="0.0"
     inkscape:pagecheckerboard="0"
     inkscape:deskcolor="#d1d1d1"
     showgrid="false"
     inkscape:zoom="2.3395291"
     inkscape:cx="66.252649"
     inkscape:cy="123.52913"
     inkscape:window-width="1920"
     inkscape:window-height="1027"
     inkscape:window-x="-8"
     inkscape:window-y="-8"
     inkscape:window-maximized="1"
     inkscape:current-layer="svg1196" />
  <path
     d="M 238.727,12 H 17.273 C 14.357,12 12,14.357 12,17.273 V 217.637 L 33.091,244 h 205.636 c 2.916,0 5.273,-2.357 5.273,-5.273 V 17.273 C 244,14.357 241.643,12 238.727,12 Z"
     fill="#25b796"
     id="path1176"
     sodipodi:nodetypes="sssccssss"
     style="fill:#1abc9c;fill-opacity:1" />
  <path
     d="m219.999 244h-159.999v-82.133c0-3.244 2.751-5.867 6.154-5.867h147.692c3.403 0 6.154 2.622 6.154 5.867v82.133z"
     fill="#10a284"
     id="path1178"
     style="fill:#16a085;fill-opacity:1" />
  <path
     d="m36 12.333h184v109.884c0 3.198-2.419 5.783-5.412 5.783h-173.176c-2.993 0-5.412-2.585-5.412-5.783z"
     fill="#1b80bb"
     id="path1180"
     style="fill:#3498db;fill-opacity:1" />
  <path
     d="m178.727 164h-105.454c-2.916 0-5.273 3.251-5.273 7.273v72.727h116v-72.727c0-4.022-2.357-7.273-5.273-7.273zm-63.727 72h-36v-64h36z"
     fill="#dadfe0"
     id="path1182"
     style="fill:#bdc3c7;fill-opacity:1" />
</svg>

<svg xmlns="http://www.w3.org/2000/svg" viewBox="0 0 256 256"><path fill="#25b796" d="M238.727 12H17.273A5.27 5.27 0 0 0 12 17.273v200.364L33.091 244h205.636a5.27 5.27 0 0 0 5.273-5.273V17.273A5.27 5.27 0 0 0 238.727 12" style="fill:#1abc9c;fill-opacity:1"/><path fill="#10a284" d="M219.999 244H60v-82.133c0-3.244 2.751-5.867 6.154-5.867h147.692c3.403 0 6.154 2.622 6.154 5.867V244z" style="fill:#16a085;fill-opacity:1"/><path fill="#1b80bb" d="M36 12.333h184v109.884c0 3.198-2.419 5.783-5.412 5.783H41.412c-2.993 0-5.412-2.585-5.412-5.783z" style="fill:#3498db;fill-opacity:1"/><path fill="#dadfe0" d="M178.727 164H73.273c-2.916 0-5.273 3.251-5.273 7.273V244h116v-72.727c0-4.022-2.357-7.273-5.273-7.273M115 236H79v-64h36z" style="fill:#bdc3c7;fill-opacity:1"/></svg>
